X:1
T:Title
%%score { ( 1 3 4 ) | ( 2 5 ) }
L:1/8
M:3/4
K:Bb
V:1 treble nm="Grand Piano"
V:3 treble 
V:4 treble 
V:2 bass 
V:5 bass 
V:1
 z2 z2[Q:1/4=92] [B,D][CE] | [DF]3 [Fd] [Ec][Fd] | [Ec]2 [DB]2 [FB][FA] | [EG]3 [GB] [FA][EG] | %4
[M:2/4] [DF]4 |[M:1/4] [B,D][CE] |[M:3/4] [DF]3 [Fd] [Ec][DB] | G2 B2 AG | F3 d cF |[M:2/4] [DB]4 | %10
[M:1/4] de |[M:3/4] d4 z2 | c2 z2 z2 | z E EA [GB][Gc] |[M:2/4] [^Fd]4 |[M:1/4] de |[M:3/4] d4 z2 | %17
 c2 z2 z2 | z D Dd cF |[M:2/4] B4 |] %20
V:2
 z2 z2 [B,,F,][B,,F,] | [B,,B,]3 [B,,B,] [B,,B,][B,,B,] | [B,,B,]2 [B,,B,]2 [D,B,][D,B,] | %3
 [E,B,]3 [E,E] [E,E][E,B,] |[M:2/4] [B,,B,]4 |[M:1/4] [B,,F,][B,,F,] | %6
[M:3/4] [B,,B,]3 [B,,B,] [B,,B,][B,,B,] | [E,B,E]2 [E,G,E]2 [E,B,F][E,B,E] | %8
 [F,B,D]3 [F,B,F] [F,A,E][F,A,E] |[M:2/4] [B,,B,]4 |[M:1/4] z2 |[M:3/4] [F,A,E][F,A,] [F,A,]2 z2 | %12
 [B,,F,][B,,F,] [B,,F,]2 [D,B,][D,B,] | [E,B,E][E,B,] [E,B,][E,B,E] [E,B,][E,G,] |[M:2/4] [D,A,]4 | %15
[M:1/4] z2 |[M:3/4] [F,A,E][F,A,] [F,A,][F,A,E] [^F,A,E][F,A,E] | [G,B,D][G,B,] [G,B,D]2 z2 | %18
 [F,B,D][F,B,] [F,B,][F,B,F] [F,A,E][F,A,E] |[M:2/4] z G, F,2 |] %20
V:3
 x6 | x6 | x6 | x6 |[M:2/4] x4 |[M:1/4] x2 |[M:3/4] x6 | x6 | x6 |[M:2/4] x4 |[M:1/4] x2 | %11
[M:3/4] z E z c GA | DD [DB]2 [FB][FA] | G4 z2 |[M:2/4] x4 |[M:1/4] x2 |[M:3/4] z E Ec eA | %17
 z D B2 AG | F4 z2 |[M:2/4] [B,D]E D2 |] %20
V:4
 x6 | x6 | x6 | x6 |[M:2/4] x4 |[M:1/4] x2 |[M:3/4] x6 | x6 | x6 |[M:2/4] x4 |[M:1/4] x2 | %11
[M:3/4] z2 E2 z2 | x6 | x6 |[M:2/4] x4 |[M:1/4] x2 |[M:3/4] x6 | x6 | x6 |[M:2/4] x4 |] %20
V:5
 x6 | x6 | x6 | x6 |[M:2/4] x4 |[M:1/4] x2 |[M:3/4] x6 | x6 | x6 |[M:2/4] x4 |[M:1/4] x2 | %11
[M:3/4] x6 | x6 | x6 |[M:2/4] x4 |[M:1/4] x2 |[M:3/4] x6 | x6 | x6 |[M:2/4] B,,4 |] %20

